X:1
T:Title
%%score ( 1 2 ) { 3 | 4 }
L:1/8
Q:1/4=105
M:3/4
K:F
V:1 treble nm="Drawbar Organ, Soprano"
V:2 treble 
V:3 bass nm="Church Organ, He Lives! The Savior Lives!"
V:4 bass 
V:1
 A2 F2 C2 | F3 G G2 | A2 F2 C2 | F3 G F2 | B2 G2 E2 | c3 d c2 | B2 D2 E2 | F4 C2 | A2 F2 C2 | %9
w: By~Arranged~from~Verdi~by~Isaac~Hickman~Meredith * *|||||||||
 F3 G F2 | A2 F2 C2 | F3 G F2 | B2 G2 E2 | c3 d c2 | G2 A2 =B2 | c4 z2 | [FA]2 [FA]2 [GB]2 | %17
w: ||||||||
 [Ac]4 [Bd][Ac] | [FA]2 [FA]2 [GB]2 | [Ac]4 [Af]2 | [ce]2 [Bd]2 [Ac]2 | [FA]4 [Bd][Ac] | %22
w: |||||
 [Ac]2 [GB]2 [EG]2 | F4 [Fc]2 | [Ec]2 [F=B]2 [G_B]2 | [FB]2 [FA]2 [CA]2 | [^CA]2 [D_A]2 [EG]2 | %27
w: |||||
 [DG]2 [DF]2 [Ff]2 | [Ge]2 [Gd]2 [Gc]2 | [FA]4 [Fd][Fc] | [Ec]2 [EB]2 [EG]2 | [FA]4 [Fc]2 | %32
w: |||||
 [Ec]2 [F=B]2 [G_B]2 | [FB]2 [FA]2 [CA]2 | [^CA]2 [D_A]2 [EG]2 | [DG]2 [DF]2 [Ff]2 | %36
w: ||||
 [Ge]2 [Gd]2 [Gc]2 | [FA]4 [Fd][Fc] | [Ec]2 [EB]2 [EG]2 | F4 A2 | F2 C2 F2- | FG G2 A2 | %42
w: ||||||
 F2 C2 F2- | FG F2 B2 | G2 E2 c2- | cd c2 B2 | D2 E2 F2- | F2 C2 A2 | F2 C2 F2- | FG F2 A2 | %50
w: ||||||||
 F2 C2 F2- | FG F2 B2 | G2 E2 c2- | cd c2 G2 | A2 =B2 c2- | c2 z2 [FA]2 | [FA]2 [GB]2 [Ac]2- | %57
w: |||||||
 [Ac]2 [Bd][Ac] [FA]2 | [FA]2 [GB]2 [Ac]2- | [Ac]2 [Af]2 [ce]2 | [Bd]2 [Ac]2 [FA]2- | %61
w: ||||
 [FA]2 [Bd][Ac] [Ac]2 | [GB]2 [EG]2 F2- | F2 [Fc]2 [Ec]2 | [F=B]2 [G_B]2 [FB]2 | %65
w: ||||
 [FA]2 [CA]2 [^CA]2 | [D_A]2 [EG]2 [DG]2 | [DF]2 [Ff]2 [Ge]2 | [Gd]2 [Gc]2 [FA]2- | %69
w: ||||
 [FA]2 [Fd][Fc] [Ec]2 | [EB]2 [EG]2 [FA]2- | [FA]2 [Fc]2 [Ec]2 | [F=B]2 [G_B]2 [FB]2 | %73
w: ||||
 [FA]2 [CA]2 [^CA]2 | [D_A]2 [EG]2 [DG]2 | [DF]2 [Ff]2 [Ge]2 | [Gd]2 [Gc]2 [FA]2- | %77
w: ||||
 [FA]2 [Fd][Fc] [Ec]2 | [EB]2 [EG]2 F2- | F2 A2 F2 | C2 F3 G | G2 A2 F2 | C2 F3 G | F2 B2 G2 | %84
w: |||||||
 E2 c3 d | c2 B2 D2 | E2 F4 | C2 A2 F2 | C2 F3 G | F2 A2 F2 | C2 F3 G | F2 B2 G2 | E2 c3 d | %93
w: |||||||||
 c2 G2 A2 | =B2 c4 | z2 [FA]2 [FA]2 | [GB]2 [Ac]4 | [Bd][Ac] [FA]2 [FA]2 | [GB]2 [Ac]4 | %99
w: ||||||
 [Af]2 [ce]2 [Bd]2 | [Ac]2 [FA]4 | [Bd][Ac] [Ac]2 [GB]2 | [EG]2 F4 | [Fc]2 [Ec]2 [F=B]2 | %104
w: |||||
 [GB]2 [FB]2 [FA]2 | [CA]2 [^CA]2 [D_A]2 | [EG]2 [DG]2 [DF]2 | [Ff]2 [Ge]2 [Gd]2 | [Gc]2 [FA]4 | %109
w: |||||
 [Fd][Fc] [Ec]2 [EB]2 | [EG]2 [FA]4 | [Fc]2 [Ec]2 [F=B]2 | [GB]2 [FB]2 [FA]2 | %113
w: ||||
 [CA]2 [^CA]2 [D_A]2 | [EG]2 [DG]2 [DF]2 | [Ff]2 [Ge]2 [Gd]2 | [Gc]2 [FA]4 | [Fd][Fc] [Ec]2 [EB]2 | %118
w: |||||
 [EG]2 F4 | .A2 z2 z2 | [Gc][Ec] [Fc]4 | .A2 z2 z2 | [Gc][Ec] [Ff]4- | [Ff]4 z2 |] %124
w: ||||||
V:2
 x6 | x6 | x6 | x6 | x6 | x6 | x6 | x6 | x6 | x6 | x6 | x6 | x6 | x6 | x6 | x6 | x6 | x6 | x6 | %19
 x6 | x6 | x6 | x6 | x6 | x6 | x6 | x6 | x6 | x6 | x6 | x6 | x6 | x6 | x6 | x6 | x6 | x6 | x6 | %38
 x6 | x6 | x6 | x6 | x6 | x6 | x6 | x6 | x6 | x6 | x6 | x6 | x6 | x6 | x6 | x6 | x6 | x6 | x6 | %57
 x6 | x6 | x6 | x6 | x6 | x6 | x6 | x6 | x6 | x6 | x6 | x6 | x6 | x6 | x6 | x6 | x6 | x6 | x6 | %76
 x6 | x6 | x6 | x6 | x6 | x6 | x6 | x6 | x6 | x6 | x6 | x6 | x6 | x6 | x6 | x6 | x6 | x6 | x6 | %95
 x6 | x6 | x6 | x6 | x6 | x6 | x6 | x6 | x6 | x6 | x6 | x6 | x6 | x6 | x6 | x6 | x6 | x6 | x6 | %114
 x6 | x6 | x6 | x6 | x6 | F-[Fc] [Ec]3 [Fc] | x6 | F-[Fc] [Ec]3 [Fc] | x6 | x6 |] %124
V:3
 F,,2 A,2 A,2 | F,,2 A,2 A,2 | F,,2 A,2 A,2 | F,,2 A,2 A,2 | C,,2 B,2 B,2 | F,,2 A,2 A,2 | %6
 C,,2 B,2 B,2 | F,,2 A,2 A,2 | F,,2 A,2 A,2 | F,,2 A,2 A,2 | F,,2 A,2 A,2 | F,,2 A,2 A,2 | %12
 D,,2 B,2 B,2 | F,,2 A,2 A,2 | G,,2 =B,2 B,2 | C4 z2 | F,C A,C G,C | F,[K:treble]C A,C G,C | %18
 F,C A,C G,C | F,C A,C F,C | C,C D,C E,C | F,[K:treble]C A,C A,C | C,C C,C C,C | A,4 A,2 | %24
 G,2 G,2[K:treble] C2 | D2 C2 A,2 | A,2[K:bass] A,2 A,2 | B,2 A,2 C2 | C2 C2 C2 | C4 B,[K:bass]A, | %30
 G,2 G,2 C2 | C4 A,2 | G,2 G,2[K:treble] C2 | D2 C2 A,2 | A,2[K:bass] A,2 A,2 | B,2 A,2 C2 | %36
 C2 C2 C2 | C4 B,[K:bass]A, | G,2 G,2 B,2 | A,4 F,,2 | A,2 A,2 F,,2 | A,2 A,2 F,,2 | A,2 A,2 F,,2 | %43
 A,2 A,2 C,,2 | B,2 B,2 F,,2 | A,2 A,2 C,,2 | B,2 B,2 F,,2 | A,2 A,2 F,,2 | A,2 A,2 F,,2 | %49
 A,2 A,2 F,,2 | A,2 A,2 F,,2 | A,2 A,2 D,,2 | B,2 B,2 F,,2 | A,2 A,2 G,,2 | =B,2 B,2 C2- | %55
 C2 z2 F,C | A,C G,C F,[K:treble]C | A,C G,C[K:bass] F,C | A,C G,C F,C | A,C F,C C,C | %60
 D,C E,C F,[K:treble]C | A,C A,C[K:bass] C,C | C,C C,C A,2- | A,2 A,2 G,2 | G,2[K:treble] C2 D2 | %65
 C2 A,2 A,2 | A,2 A,2 B,2 | A,2 C2[K:treble] C2 | C2 C2 C2- | C2[K:bass] B,A, G,2 | G,2 C2 C2- | %71
 C2 A,2 G,2 | G,2[K:treble] C2 D2 | C2 A,2 A,2 | A,2 A,2 B,2 | A,2 C2[K:treble] C2 | C2 C2 C2- | %77
 C2[K:bass] B,A, G,2 | G,2 B,2 A,2- | A,2 F,,2 A,2 | A,2 F,,2 A,2 | A,2 F,,2 A,2 | A,2 F,,2 A,2 | %83
 A,2 C,,2 B,2 | B,2 F,,2 A,2 | A,2 C,,2 B,2 | B,2 F,,2 A,2 | A,2 F,,2 A,2 | A,2 F,,2 A,2 | %89
 A,2 F,,2 A,2 | A,2 F,,2 A,2 | A,2 D,,2 B,2 | B,2 F,,2 A,2 | A,2 G,,2 =B,2 | =B,2 C4 | z2 F,C A,C | %96
 G,C F,[K:treble]C A,C | G,C[K:bass] F,C A,C | G,C F,C A,C | F,C C,C D,C | E,C F,[K:treble]C A,C | %101
 A,C[K:bass] C,C C,C | C,C A,4 | A,2 G,2 G,2 | C2 D2 C2 | A,2 A,2[K:bass] A,2 | A,2 B,2 A,2 | %107
 C2[K:treble] C2 C2 | C2 C4 | B,[K:bass]A, G,2 G,2 | C2 C4 | A,2 G,2 G,2 | C2 D2 C2 | %113
 A,2 A,2[K:bass] A,2 | A,2 B,2 A,2 | C2[K:treble] C2 C2 | C2 C4 | B,[K:bass]A, G,2 G,2 | B,2 A,4 | %119
 CA, G,3 G, | G,B, A,4 | CA, G,3 A, | B,B, A,4- | A,4 z2 |] %124
V:4
 z2 [C,F,]2 [C,F,]2 | z2 [C,F,]2 [C,F,]2 | z2 [C,F,]2 [C,F,]2 | z2 [C,F,]2 [C,F,]2 | %4
 z2 [C,E,]2 [C,E,]2 | z2 [C,F,]2 [C,F,]2 | z2 [C,E,]2 [C,E,]2 | z2 [C,F,]2 [C,F,]2 | %8
 z2 [C,F,]2 [C,F,]2 | z2 [C,F,]2 [C,F,]2 | z2 [C,F,]2 [C,F,]2 | z2 [C,F,]2 [C,F,]2 | %12
 z2 [C,E,]2 [C,E,]2 | z2 [C,F,]2 [C,F,]2 | z2 [F,G,]2 [F,G,]2 | [C,E,G,]4 z2 | z6 | z6 | z6 | z6 | %20
 z6 | z6 | z6 | F,4 F,2 | C,2 D,2 E,2 | F,2 F,2 F,2 | A,,2 =B,,2 ^C,2 | D,2 D,2 A,,2 | %28
 C,2 D,2 E,2 | F,4 F,F, | C,2 C,2 C,2 | F,4 F,2 | C,2 D,2 E,2 | F,2 F,2 F,2 | A,,2 =B,,2 ^C,2 | %35
 D,2 D,2 A,,2 | C,2 D,2 E,2 | F,4 F,F, | C,2 C,2 C,2 | F,4 z2 | [C,F,]2 [C,F,]2 z2 | %41
 [C,F,]2 [C,F,]2 z2 | [C,F,]2 [C,F,]2 z2 | [C,F,]2 [C,F,]2 z2 | [C,E,]2 [C,E,]2 z2 | %45
 [C,F,]2 [C,F,]2 z2 | [C,E,]2 [C,E,]2 z2 | [C,F,]2 [C,F,]2 z2 | [C,F,]2 [C,F,]2 z2 | %49
 [C,F,]2 [C,F,]2 z2 | [C,F,]2 [C,F,]2 z2 | [C,F,]2 [C,F,]2 z2 | [C,E,]2 [C,E,]2 z2 | %53
 [C,F,]2 [C,F,]2 z2 | [F,G,]2 [F,G,]2 [C,E,G,]2- | [C,E,G,]2 z2 z2 | z6 | z6 | z6 | z6 | z6 | z6 | %62
 z2 z2 F,2- | F,2 F,2 C,2 | D,2 E,2 F,2 | F,2 F,2 A,,2 | =B,,2 ^C,2 D,2 | D,2 A,,2 C,2 | %68
 D,2 E,2 F,2- | F,2 F,F, C,2 | C,2 C,2 F,2- | F,2 F,2 C,2 | D,2 E,2 F,2 | F,2 F,2 A,,2 | %74
 =B,,2 ^C,2 D,2 | D,2 A,,2 C,2 | D,2 E,2 F,2- | F,2 F,F, C,2 | C,2 C,2 F,2- | F,2 z2 [C,F,]2 | %80
 [C,F,]2 z2 [C,F,]2 | [C,F,]2 z2 [C,F,]2 | [C,F,]2 z2 [C,F,]2 | [C,F,]2 z2 [C,E,]2 | %84
 [C,E,]2 z2 [C,F,]2 | [C,F,]2 z2 [C,E,]2 | [C,E,]2 z2 [C,F,]2 | [C,F,]2 z2 [C,F,]2 | %88
 [C,F,]2 z2 [C,F,]2 | [C,F,]2 z2 [C,F,]2 | [C,F,]2 z2 [C,F,]2 | [C,F,]2 z2 [C,E,]2 | %92
 [C,E,]2 z2 [C,F,]2 | [C,F,]2 z2 [F,G,]2 | [F,G,]2 [C,E,G,]4 | z6 | z6 | z6 | z6 | z6 | z6 | z6 | %102
 z2 F,4 | F,2 C,2 D,2 | E,2 F,2 F,2 | F,2 A,,2 =B,,2 | ^C,2 D,2 D,2 | A,,2 C,2 D,2 | E,2 F,4 | %109
 F,F, C,2 C,2 | C,2 F,4 | F,2 C,2 D,2 | E,2 F,2 F,2 | F,2 A,,2 =B,,2 | ^C,2 D,2 D,2 | %115
 A,,2 C,2 D,2 | E,2 F,4 | F,F, C,2 C,2 | C,2 F,4 | F,2 C,3 D, | E,C, F,4 | F,2 C,3 C, | C,C, F,4- | %123
 F,4 z2 |] %124

